src/status/24/system-suspend.svg

<?xml version="1.0" encoding="UTF-8"?>
<svg width="24" height="24" version="1.1" xmlns="http://www.w3.org/2000/svg">
 <defs>
  <style id="current-color-scheme" type="text/css">.ColorScheme-Text {
        color:#363636;
      }</style>
 </defs>
 <path class="ColorScheme-Text" d="m9.0463 4.0488a7.995 8 0 0 0-4.0463 6.9512 7.995 8 0 0 0 7.995 8 7.995 8 0 0 0 6.9371-4.043 7.995 8 0 0 0 0.0098-0.0059l-0.73782-0.73828a6.9956 7 0 0 1-0.0039 0.0059 6.9956 7 0 0 1-3.207 0.78125 6.9956 7 0 0 1-6.9956-7 6.9956 7 0 0 1 0.78661-3.2129zm-0.74367 1.7715a7.995 8 0 0 0-0.3045 2.1797 7.995 8 0 0 0 7.995 8 7.995 8 0 0 0 2.1861-0.3125 6.9956 7 0 0 1-5.1842 2.3125 6.9956 7 0 0 1-6.9956-7 6.9956 7 0 0 1 2.3032-5.1797zm5.4077 3.2797h1.7147l-0.03217 0.9h-3.3973l1.7147-2.7h-1.7147v-0.9h3.4294zm4.5732-2.4h1.7165l-0.03222 0.9h-3.4008l1.7165-2.7h-1.7165v-0.9h3.433z" color="#363636" fill="currentColor"/>
</svg>

<svg xmlns="http://www.w3.org/2000/svg" width="24" height="24">
    <path fill="currentColor" fill-opacity=".7" d="M9.046 4.049A7.995 8 0 0 0 5 11a7.995 8 0 0 0 7.995 8 7.995 8 0 0 0 6.937-4.043 7.995 8 0 0 0 .01-.006l-.738-.738a6.996 7 0 0 1-.004.006 6.996 7 0 0 1-3.207.781 6.996 7 0 0 1-6.995-7 6.996 7 0 0 1 .786-3.213zM8.303 5.82A7.995 8 0 0 0 7.998 8a7.995 8 0 0 0 7.995 8 7.995 8 0 0 0 2.186-.312A6.996 7 0 0 1 12.995 18a6.996 7 0 0 1-6.996-7 6.996 7 0 0 1 2.304-5.18zM13.71 9.1h1.715l-.032.9h-3.397l1.714-2.7h-1.714v-.9h3.429zm4.574-2.4H20l-.032.9h-3.401l1.717-2.7h-1.717V4H20z" color="#050505" style="color:#050505;opacity:.7"/>
</svg>
